assets/Glasses/Flat/glasses_flat.svg

<svg width="32" height="32" viewBox="0 0 32 32" fill="none" xmlns="http://www.w3.org/2000/svg">
<path d="M2.98999 10C2.44323 10 2 10.4517 2 10.9985V11C2 11.4995 2.25209 11.7505 2.50442 12.0017C2.75725 12.2534 3.01032 12.5054 3.01032 13.0078V13.1625C3.00607 13.2345 3.00391 13.307 3.00391 13.38V15.62C3.00391 18.57 5.20765 20.9892 7.93697 20.9892H9.91019C12.7133 20.9892 15 18.51 15 15.47V13.9972H15.0039C15.0039 13.461 15.3182 13 16.0028 13C16.6438 13 16.962 13.3972 17 13.8943V15.47C17 18.51 19.2801 20.98 22.0865 20.98H24.062C26.7852 20.98 29.01 18.58 29.01 15.62V14.0039H29.013V13C29.013 12.501 29.2588 12.2521 29.505 12.0027C29.75 11.7544 29.9956 11.5057 29.9999 11.0096L30 10.9985V10.9961C29.9987 10.4504 29.556 10 29.01 10H19.99C19.9283 10 19.8679 10.0058 19.8094 10.0167C19.0939 10.0942 18.4478 10.436 17.9561 10.95C17.8726 11.0282 17.7935 11.1073 17.7157 11.1851C17.2875 11.6133 16.897 12.0039 16.0028 12.0039C15.0888 12.0039 14.7129 11.6249 14.2747 11.1829C14.1913 11.0988 14.1056 11.0124 14.0136 10.926C13.5278 10.4287 12.8967 10.0974 12.1988 10.0183C12.1377 10.0063 12.0746 10 12.01 10H2.98999Z" fill="#533566"/>
<path d="M24.0526 20.0048C26.2682 20.0048 28.0032 18.01 28.0032 15.61V13.38C28.0032 12.07 27.0898 11 25.8804 11H20.1201C18.9108 11 18.0154 12.07 18.0062 13.38V15.46C18.0062 17.95 19.7877 20.0048 22.0771 20.0048H24.0526ZM14.0055 15.47C14.0055 17.95 12.206 20.0039 9.91007 20.0039H7.94607C5.73311 20.0039 4.00293 18.02 4.00293 15.62V13.38C4.00293 12.07 4.91247 11 6.12038 11H11.8833C13.0912 11 14.0055 12.07 14.0055 13.38V15.47Z" fill="#83CBFF"/>
<path d="M25.7725 15.901C26.7872 15.5561 27.2715 14.4275 26.8448 13.3825C26.4182 12.3271 25.2421 11.7523 24.2275 12.0972C23.2128 12.442 22.7285 13.5706 23.1551 14.6156C23.5818 15.6606 24.7579 16.2458 25.7725 15.901ZM11.7725 15.9049C12.7872 15.56 13.2715 14.4311 12.8448 13.3859C12.4182 12.3302 11.2421 11.7553 10.2275 12.1002C9.21279 12.4347 8.72852 13.574 9.15514 14.6193C9.58176 15.6645 10.7579 16.2394 11.7725 15.9049Z" fill="white"/>
</svg>

<svg xmlns="http://www.w3.org/2000/svg" width="32" height="32" fill="none"><path fill="#533566" d="M2.99 10a.997.997 0 0 0-.99.998V11c0 .5.252.75.504 1.002.253.251.506.503.506 1.006v.155a3.69 3.69 0 0 0-.006.217v2.24c0 2.95 2.204 5.37 4.933 5.37H9.91c2.803 0 5.09-2.48 5.09-5.52v-1.473h.004c0-.536.314-.997.999-.997.64 0 .959.397.997.894v1.576c0 3.04 2.28 5.51 5.087 5.51h1.975c2.723 0 4.948-2.4 4.948-5.36v-1.616h.003V13c0-.499.246-.748.492-.997.245-.249.49-.497.495-.993V10.996a.997.997 0 0 0-.99-.996h-9.02a.986.986 0 0 0-.18.017 3.018 3.018 0 0 0-1.854.933c-.083.078-.162.157-.24.235-.428.428-.819.819-1.713.819-.914 0-1.29-.38-1.728-.821a10.18 10.18 0 0 0-.261-.257 3.015 3.015 0 0 0-1.815-.908.979.979 0 0 0-.189-.018H2.99Z"/><path fill="#83CBFF" d="M24.053 20.005c2.215 0 3.95-1.995 3.95-4.395v-2.23c0-1.31-.913-2.38-2.123-2.38h-5.76c-1.21 0-2.105 1.07-2.114 2.38v2.08c0 2.49 1.782 4.545 4.071 4.545h1.976ZM14.005 15.47c0 2.48-1.799 4.534-4.095 4.534H7.946c-2.213 0-3.943-1.984-3.943-4.384v-2.24c0-1.31.91-2.38 2.117-2.38h5.763c1.208 0 2.123 1.07 2.123 2.38v2.09Z"/><path fill="#fff" d="M25.773 15.901c1.014-.345 1.498-1.473 1.072-2.518-.427-1.056-1.603-1.63-2.617-1.286-1.015.345-1.5 1.474-1.073 2.519.427 1.045 1.603 1.63 2.617 1.285Zm-14 .004c1.014-.345 1.498-1.474 1.072-2.52-.427-1.055-1.603-1.63-2.618-1.285-1.014.335-1.498 1.474-1.072 2.52.427 1.045 1.603 1.62 2.618 1.285Z"/></svg>
